src/16/places/user-trash-full.svg

<svg xmlns="http://www.w3.org/2000/svg" width="16" height="16" viewBox="0 0 16 16">
 <defs>
  <style id="current-color-scheme" type="text/css">
   .ColorScheme-Text { color:#727272; } .ColorScheme-Highlight { color:#5294e2; }
  </style>
 </defs>
 <path style="fill:currentColor" class="ColorScheme-Text" d="M 6 0.99414062 C 5 0.99414062 5 1.9941406 5 1.9941406 L 2 1.9941406 C 2 1.9941406 1 1.9956937 1 2.9960938 L 1 3 L 1 4 L 14 3.9960938 L 14 2.9960938 C 14 1.9960938 13 1.9941406 13 1.9941406 L 10 1.9941406 C 10 1.9941406 10 0.99414062 9 0.99414062 L 6 0.99414062 z M 2 5 C 2 5 0.95927 8.3036063 1 10.003906 C 1.03 11.383906 2 14.003906 2 14.003906 C 2.00005 14.527486 2.47642 15.003856 3 15.003906 L 12 15.003906 C 12.52358 15.003856 12.99995 14.527486 13 14.003906 C 13 14.003906 13.96711 11.380712 14 10.007812 C 14.04 8.3078125 13 5.0078125 13 5.0078125 L 2 5 z"/>
</svg>

<svg width="16" height="16" version="1.1" viewBox="0 0 16 16" xmlns="http://www.w3.org/2000/svg">
 <defs>
  <style id="current-color-scheme" type="text/css">.ColorScheme-Text { color:#727272; } .ColorScheme-Highlight { color:#5294e2; }</style>
 </defs>
 <path style="fill:currentColor" class="ColorScheme-Text" d="m6 0.99414c-1 0-1 1-1 1h-3s-1 0.00155-1 1.002v1.0039l13-0.00391v-1c0-1-1-1.002-1-1.002h-3s0-1-1-1zm-4 4.0059v9c5e-5 0.52358 0.47642 0.99995 1 1h9c0.52358-5e-5 0.99995-0.47642 1-1v-9h-2v8h-7v-8z"/>
 <path style="fill:currentColor" class="ColorScheme-Text" d="m5 7 5-1v6h-5z"/>
</svg>
